src/mimes/48/text-x-r.svg

<?xml version="1.0" encoding="UTF-8" standalone="no"?>
<svg
   xmlns:dc="http://purl.org/dc/elements/1.1/"
   xmlns:cc="http://creativecommons.org/ns#"
   xmlns:rdf="http://www.w3.org/1999/02/22-rdf-syntax-ns#"
   xmlns:svg="http://www.w3.org/2000/svg"
   xmlns="http://www.w3.org/2000/svg"
   id="svg35"
   viewBox="0 0 12.7 12.7"
   version="1.1"
   height="48"
   width="48">
  <metadata
     id="metadata39">
    <rdf:RDF>
      <cc:Work
         rdf:about="">
        <dc:format>image/svg+xml</dc:format>
        <dc:type
           rdf:resource="http://purl.org/dc/dcmitype/StillImage" />
        <dc:title></dc:title>
      </cc:Work>
    </rdf:RDF>
  </metadata>
  <defs
     id="defs17">
    <linearGradient
       gradientUnits="userSpaceOnUse"
       gradientTransform="matrix(.26458 0 0 .25298 4.0601e-6 -.13703)"
       y2="47.013"
       y1=".98521"
       x2="25.132"
       x1="25.132"
       id="b">
      <stop
         id="stop2"
         offset="0"
         stop-color="#dadada" />
      <stop
         id="stop4"
         offset="1"
         stop-color="#fff" />
    </linearGradient>
    <radialGradient
       gradientUnits="userSpaceOnUse"
       gradientTransform="matrix(-.45777 -.0008961 .00091613 -.46801 23.103 11.548)"
       r="17.5"
       cy="23.566"
       cx="26.53"
       id="c">
      <stop
         id="stop7"
         offset="0"
         stop-opacity=".65926" />
      <stop
         id="stop9"
         offset="1"
         stop-opacity="0"
         stop-color="#cecece" />
    </radialGradient>
    <linearGradient
       gradientUnits="userSpaceOnUse"
       gradientTransform="matrix(.14954 0 0 -.15945 -5.0754 18.727)"
       y2="102.07"
       y1="98.192"
       x2="95.182"
       x1="91.308"
       id="a">
      <stop
         id="stop12"
         offset="0"
         stop-color="#fcfcfc" />
      <stop
         id="stop14"
         offset="1"
         stop-color="#c1c1c1" />
    </linearGradient>
  </defs>
  <g
     style="stroke-width:0.26458001"
     id="g29">
    <path
       style="fill:none;stroke:#000000;stroke-opacity:0.54901997"
       id="path19"
       d="m 1.7198,0.49534 c 1.535,0 5.5617,6.0324e-4 5.5617,6.0324e-4 l 3.6985,3.79719996 10e-6,7.8449998 H 1.71981 V 0.49514324 Z" />
    <path
       style="fill:url(#b)"
       id="path21"
       d="m 1.7198,0.50116 c 1.535,0 5.544,6.0324e-4 5.544,6.0324e-4 l 3.7163,3.79139996 10e-6,7.8507998 H 1.71991 V 0.50096324 Z" />
    <path
       id="path4605"
       d="M 6.3455572,3.1081625 A 4.068553,2.7345947 0 0 0 2.2770228,5.8427572 4.068553,2.7345947 0 0 0 6.3455572,8.5773519 4.068553,2.7345947 0 0 0 10.414154,5.8427572 4.068553,2.7345947 0 0 0 6.3455572,3.1081625 Z m 0.5688322,1.108118 a 2.9994378,1.8618533 0 0 1 0.2994089,0.00931 2.9994378,1.8618533 0 0 1 0.2964725,0.027798 2.9994378,1.8618533 0 0 1 0.2904762,0.046101 2.9994378,1.8618533 0 0 1 0.2816678,0.06378 2.9994378,1.8618533 0 0 1 0.2699858,0.080958 2.9994378,1.8618533 0 0 1 0.2556188,0.097263 2.9994378,1.8618533 0 0 1 0.2386274,0.1126296 2.9994378,1.8618533 0 0 1 0.219387,0.1268724 2.9994378,1.8618533 0 0 1 0.1978985,0.1398031 2.9994378,1.8618533 0 0 1 0.1744104,0.1514222 2.9994378,1.8618533 0 0 1 0.1491732,0.161417 2.9994378,1.8618533 0 0 1 0.122437,0.1698502 2.9994378,1.8618533 0 0 1 0.094577,0.1765968 2.9994378,1.8618533 0 0 1 0.065654,0.1815942 2.9994378,1.8618533 0 0 1 0.036107,0.18478 2.9994378,1.8618533 0 0 1 0.00756,0.1316826 2.9994378,1.8618533 0 0 1 -0.014995,0.1859025 2.9994378,1.8618533 0 0 1 -0.044852,0.1840301 2.9994378,1.8618533 0 0 1 -0.07415,0.1802826 A 2.9994378,1.8618533 0 0 1 9.6770329,6.8032013 2.9994378,1.8618533 0 0 1 9.5466623,6.9708027 2.9994378,1.8618533 0 0 1 9.3899303,7.1294087 2.9994378,1.8618533 0 0 1 9.2084611,7.2775826 2.9994378,1.8618533 0 0 1 9.0041287,7.4137625 2.9994378,1.8618533 0 0 1 8.7788693,7.5365744 2.9994378,1.8618533 0 0 1 8.5349946,7.6448314 2.9994378,1.8618533 0 0 1 8.2749407,7.7374713 2.9994378,1.8618533 0 0 1 8.0012689,7.8134945 2.9994378,1.8618533 0 0 1 7.7167275,7.8721518 2.9994378,1.8618533 0 0 1 7.4241907,7.9129434 2.9994378,1.8618533 0 0 1 7.126531,7.9353695 2.9994378,1.8618533 0 0 1 6.9143897,7.9399918 2.9994378,1.8618533 0 0 1 6.6149187,7.9306838 2.9994378,1.8618533 0 0 1 6.3185086,7.9028856 2.9994378,1.8618533 0 0 1 6.0279707,7.856847 2.9994378,1.8618533 0 0 1 5.7463654,7.7930046 2.9994378,1.8618533 0 0 1 5.4763793,7.7121088 2.9994378,1.8618533 0 0 1 5.2207606,7.614784 2.9994378,1.8618533 0 0 1 4.9820707,7.5021543 2.9994378,1.8618533 0 0 1 4.762746,7.3753442 2.9994378,1.8618533 0 0 1 4.5648477,7.2354786 2.9994378,1.8618533 0 0 1 4.3904373,7.0841192 2.9994378,1.8618533 0 0 1 4.2412639,6.922702 2.9994378,1.8618533 0 0 1 4.1187644,6.7527895 2.9994378,1.8618533 0 0 1 4.0242504,6.5761925 2.9994378,1.8618533 0 0 1 3.9585968,6.3945987 2.9994378,1.8618533 0 0 1 3.9224278,6.2098809 2.9994378,1.8618533 0 0 1 3.9149319,6.0781361 2.9994378,1.8618533 0 0 1 3.9299241,5.8922941 2.9994378,1.8618533 0 0 1 3.9747139,5.7082636 2.9994378,1.8618533 0 0 1 4.0489257,5.5279188 2.9994378,1.8618533 0 0 1 4.1516853,5.3531336 2.9994378,1.8618533 0 0 1 4.2821182,5.1855323 2.9994378,1.8618533 0 0 1 4.4388502,5.0268638 2.9994378,1.8618533 0 0 1 4.620257,4.87869 2.9994378,1.8618533 0 0 1 4.8246519,4.7425725 2.9994378,1.8618533 0 0 1 5.0499112,4.619698 2.9994378,1.8618533 0 0 1 5.2937858,4.5114412 2.9994378,1.8618533 0 0 1 5.5538398,4.4188638 2.9994378,1.8618533 0 0 1 5.8275115,4.3428404 2.9994378,1.8618533 0 0 1 6.1120529,4.2841205 2.9994378,1.8618533 0 0 1 6.40459,4.2433914 2.9994378,1.8618533 0 0 1 6.7021873,4.2209656 2.9994378,1.8618533 0 0 1 6.9143894,4.2162805 Z"
       style="opacity:1;fill:#c5c6ca;fill-opacity:1;stroke:none;stroke-width:0.07365815;stroke-linecap:square;stroke-linejoin:round;stroke-miterlimit:10;stroke-dasharray:none;stroke-opacity:1;paint-order:markers stroke fill" />
    <path
       style="fill:url(#c)"
       id="path23"
       d="m 1.7198,0.50116 c 1.535,0 5.544,6.0324e-4 5.544,6.0324e-4 l 3.7163,3.79139996 10e-6,7.8507998 H 1.71991 V 0.50096324 Z" />
    <rect
       style="fill:none"
       id="rect25"
       height="6.3829002"
       width="5.7858"
       y="0.49533999"
       x="5.1942" />
    <path
       style="fill:url(#a)"
       id="path27"
       d="M 7.7651,3.7602 C 7.75313,2.84931 7.78961,1.3172 7.27756,0.5122 c 0,0 3.3445,3.3625 3.7025,3.7808 0,0 -0.62131,-0.49677 -3.2152,-0.53294 z" />
  </g>
  <path
     id="path4588"
     d="m 7.6510573,4.7788157 c -0.944724,-0.00541 -2.0249592,0.016242 -2.0249592,0.016242 V 9.3672695 H 7.0060762 V 7.5549512 c 0.1118046,-0.00536 0.3156406,-0.026822 0.4518928,0.032171 0.1134399,0.049116 0.1924444,0.158864 0.2668001,0.2576176 0.3497585,0.4645212 0.8176425,1.5408953 0.8176425,1.5408953 h 1.5639464 c 0,0 -0.5958213,-1.0033469 -0.9292103,-1.563946 C 9.0315103,7.5767973 8.9105823,7.4515849 8.4688244,7.34331 10.491132,6.8192357 9.6410331,4.8406033 8.505618,4.7950573 8.2658533,4.7854395 7.9659652,4.780619 7.6510573,4.7788157 Z m 0.2565555,1.0097934 c 0.02911,0.00526 0.056172,0.012812 0.081271,0.022426 0.025098,0.00961 0.048238,0.021263 0.069402,0.034607 0.042328,0.026688 0.076894,0.060222 0.1039466,0.098075 0.027053,0.037852 0.046575,0.08005 0.05897,0.1240612 0.012395,0.044011 0.017638,0.089829 0.015992,0.1349931 -0.00165,0.045164 -0.010168,0.089684 -0.025237,0.1309952 -0.015069,0.041311 -0.036716,0.079427 -0.064592,0.11188 -0.027876,0.032453 -0.061945,0.059184 -0.1020103,0.077773 -0.020033,0.00929 -0.041565,0.016599 -0.064529,0.021489 -0.022964,0.00489 -0.047394,0.00739 -0.073212,0.00725 H 7.0244418 V 5.7977919 Z"
     style="fill:#7c9cc1;fill-opacity:1;stroke:none;stroke-width:0.03198356px;stroke-linecap:butt;stroke-linejoin:miter;stroke-opacity:1" />
</svg>

<svg xmlns="http://www.w3.org/2000/svg" viewBox="0 0 12.7 12.7" height="48" width="48"><defs><linearGradient gradientUnits="userSpaceOnUse" gradientTransform="matrix(.26458 0 0 .25298 0 -.137)" y2="47.013" y1=".985" x2="25.132" x1="25.132" id="a"><stop offset="0" stop-color="#dadada"/><stop offset="1" stop-color="#fff"/></linearGradient><linearGradient gradientUnits="userSpaceOnUse" gradientTransform="matrix(.14954 0 0 -.15945 -5.075 18.727)" y2="102.07" y1="98.192" x2="95.182" x1="91.308" id="c"><stop offset="0" stop-color="#fcfcfc"/><stop offset="1" stop-color="#c1c1c1"/></linearGradient><radialGradient gradientUnits="userSpaceOnUse" gradientTransform="matrix(-.45777 -.0009 .00092 -.46801 23.103 11.548)" r="17.5" cy="23.566" cx="26.53" id="b"><stop offset="0" stop-opacity=".659"/><stop offset="1" stop-opacity="0" stop-color="#cecece"/></radialGradient></defs><g style="stroke-width:.26458001"><path style="fill:none;stroke:#000;stroke-opacity:.54901997" d="M1.72.495h5.562l3.698 3.798v7.845H1.72V.495Z"/><path style="fill:url(#a)" d="M1.72.501h5.544l3.716 3.792v7.851H1.72V.501Z"/><path d="M6.346 3.108a4.069 2.735 0 0 0-4.069 2.735 4.069 2.735 0 0 0 4.069 2.734 4.069 2.735 0 0 0 4.068-2.734 4.069 2.735 0 0 0-4.068-2.735Zm.568 1.108a3 1.862 0 0 1 .3.01 3 1.862 0 0 1 .296.027 3 1.862 0 0 1 .29.046 3 1.862 0 0 1 .282.064 3 1.862 0 0 1 .27.081 3 1.862 0 0 1 .256.097 3 1.862 0 0 1 .239.113 3 1.862 0 0 1 .219.127 3 1.862 0 0 1 .198.14 3 1.862 0 0 1 .174.151 3 1.862 0 0 1 .15.162 3 1.862 0 0 1 .122.17 3 1.862 0 0 1 .095.176 3 1.862 0 0 1 .065.182 3 1.862 0 0 1 .036.184 3 1.862 0 0 1 .008.132 3 1.862 0 0 1-.015.186 3 1.862 0 0 1-.045.184 3 1.862 0 0 1-.074.18 3 1.862 0 0 1-.103.175 3 1.862 0 0 1-.13.168 3 1.862 0 0 1-.157.158 3 1.862 0 0 1-.182.149 3 1.862 0 0 1-.204.136 3 1.862 0 0 1-.225.123 3 1.862 0 0 1-.244.108 3 1.862 0 0 1-.26.092A3 1.862 0 0 1 8 7.813a3 1.862 0 0 1-.284.06 3 1.862 0 0 1-.293.04 3 1.862 0 0 1-.297.022 3 1.862 0 0 1-.213.005 3 1.862 0 0 1-.3-.01 3 1.862 0 0 1-.295-.027 3 1.862 0 0 1-.291-.046 3 1.862 0 0 1-.282-.064 3 1.862 0 0 1-.27-.08 3 1.862 0 0 1-.255-.098 3 1.862 0 0 1-.239-.113 3 1.862 0 0 1-.22-.127 3 1.862 0 0 1-.197-.14 3 1.862 0 0 1-.175-.15 3 1.862 0 0 1-.149-.162 3 1.862 0 0 1-.122-.17 3 1.862 0 0 1-.095-.177 3 1.862 0 0 1-.065-.181 3 1.862 0 0 1-.037-.185 3 1.862 0 0 1-.007-.132 3 1.862 0 0 1 .015-.186 3 1.862 0 0 1 .045-.184 3 1.862 0 0 1 .074-.18 3 1.862 0 0 1 .103-.175 3 1.862 0 0 1 .13-.167 3 1.862 0 0 1 .157-.16 3 1.862 0 0 1 .181-.147 3 1.862 0 0 1 .205-.136 3 1.862 0 0 1 .225-.123 3 1.862 0 0 1 .244-.109 3 1.862 0 0 1 .26-.092 3 1.862 0 0 1 .274-.076 3 1.862 0 0 1 .284-.059 3 1.862 0 0 1 .293-.04 3 1.862 0 0 1 .297-.023 3 1.862 0 0 1 .212-.005Z" style="opacity:1;fill:#c5c6ca;fill-opacity:1;stroke:none;stroke-width:.07365815;stroke-linecap:square;stroke-linejoin:round;stroke-miterlimit:10;stroke-dasharray:none;stroke-opacity:1;paint-order:markers stroke fill"/><path style="fill:url(#b)" d="M1.72.501h5.544l3.716 3.792v7.851H1.72V.501Z"/><path style="fill:none" d="M5.194.495h5.786v6.383H5.194z"/><path style="fill:url(#c)" d="M7.765 3.76c-.012-.91.025-2.443-.487-3.248 0 0 3.344 3.363 3.702 3.781 0 0-.621-.497-3.215-.533z"/></g><path d="M7.651 4.779c-.945-.006-2.025.016-2.025.016v4.572h1.38V7.555c.112-.005.316-.027.452.032.113.05.192.159.267.258.35.464.817 1.54.817 1.54h1.564l-.929-1.563c-.145-.245-.266-.37-.708-.479 2.022-.524 1.172-2.502.037-2.548-.24-.01-.54-.014-.855-.016Zm.257 1.01a.45.45 0 0 1 .15.057.37.37 0 0 1 .163.222.44.44 0 0 1-.009.266.361.361 0 0 1-.065.112.301.301 0 0 1-.24.106h-.883v-.754Z" style="fill:#7c9cc1;fill-opacity:1;stroke:none;stroke-width:.03198356px;stroke-linecap:butt;stroke-linejoin:miter;stroke-opacity:1"/></svg>
